X:52
T:An Ghlaisin
S:Jacques Dumont
Z:robin.beech@mcgill.ca
R:hornpipe
M:4/4
L:1/8
K:A
A,B,CE DB,B,2 | CEAB AECE | D2BA GEEc | d2c2 BAFE |
A,B,CE D2B,2 | CEAB AECE | D2BA GEEF | GABG A4 ::
aaag fgaf | eeef eAcA | Bcdc BGFE | ABcd ecBA |
aaag fgaf | e2ef eAcA | Bbba gggf | e2dB A4 :|
